svg/atm.svg

<svg xmlns="http://www.w3.org/2000/svg" viewBox="0 0 24 24"><path d="M8 9v1.5h2.25V15h1.5v-4.5H14V9zM6 9H3a1 1 0 0 0-1 1v5h1.5v-1.5h2V15H7v-5a1 1 0 0 0-1-1m-.5 3h-2v-1.5h2zM21 9h-4.5a1 1 0 0 0-1 1v5H17v-4.5h1V14h1.5v-3.5h1V15H22v-5a1 1 0 0 0-1-1"/></svg>

<?xml version="1.0" encoding="UTF-8"?><!DOCTYPE svg PUBLIC "-//W3C//DTD SVG 1.1//EN" "http://www.w3.org/Graphics/SVG/1.1/DTD/svg11.dtd"><svg xmlns="http://www.w3.org/2000/svg" xmlns:xlink="http://www.w3.org/1999/xlink" version="1.1" id="mdi-atm" width="24" height="24" viewBox="0 0 24 24"><path d="M8,9V10.5H10.25V15H11.75V10.5H14V9H8M6,9H3A1,1 0 0,0 2,10V15H3.5V13.5H5.5V15H7V10A1,1 0 0,0 6,9M5.5,12H3.5V10.5H5.5V12M21,9H16.5A1,1 0 0,0 15.5,10V15H17V10.5H18V14H19.5V10.5H20.5V15H22V10A1,1 0 0,0 21,9Z" /></svg>
